X:1
T:Orsavals
R:Vals
Z:Hkan Lidn, 2008-09-26
O:Dalarna
Q:1/4=160
M:3/4
L:1/8
K:D
DF | A4 A2 | AB AG FA | d4 de | d2 cA de | f4 a2 | a2 gf ec |
Ac eg fe | d2 Bd BG | A6 | AB AG FA | d3 d de | d2 cA de | 
f4 a2 | a2 gf ec | Ac eg fe | d4 :: g2 | b2 gb gb | a2 fd fa |
ab ag ec | A2 df a2 | b2 gb gb | a2 fd fa | ab ag ec |1 d4 :|2 d6 ||
|: A2 d2 g2 | f3 e d2 | d2 gb gb | a3 f d2 | de =f2 d2 | e4 =c2- |
c2 Bd B^G | A4 A2- | A2 f2 a2 | g3 f g2 | A2 d2 f2 | e3 ^d e2 | AB c2 d2 |
E3 G B2 | BA FG EC |1 D6 :|2 D4 |]
